!!!ONB: MCCC : ILB0190_03 : Extracted Monophonic Melody
!!!COM: Beethoven, Ludwig van
!!!OPR: Piano Sonata No.29
!!!OMV: 3
!!!SCT: Op.106
!!!ODT: 1817///
**kern
*thru
*staff1
*clefG2
*k[f#c#g#]
*f#:
*M6/8
*MM46
=1
4.A
4.c#
=2
4cc#
8a
8a
8f#
8g#
=3
4.a
4b
8dd
=4
4dd
8cc#
8cc#
8ee#
8ff#
=5
4.gg#
4.dd
=6
4.dd
4cc#
8b
=7
4.b
8b
8a
8g#
=8
4g#
8g#
8g#
8a
8f#
=9
4.f#
8e#
8g#
8b
=10
4b
8a
8a
8g#
8f#
=11
4f#
8e#
8e#
8g#
16b
16dd
=12
4dd
8cc#
8cc#
8b
8a
=13
4a
8g#
4g#
8g
=14
4bb
8aa
4gg
8ff#
=15
4ee
8ff#
4gg
8f#
=16
8f#
8a
8cc#
4cc#
8cc#
=17
4cc#
8a
8a
8f#
16g#
16a
=18
4b
8a
8a
8g#
8f#
=19
8f#
8d##
8e#
8.e#
16g#
16b
16dd
=20
4dd
8cc#
8cc#
8b
8a
=21
4a
8g#
8g#
4g
=22
4bb
8aa
8aa
8ggg
8fff#
=23
8fff#
8eee
8fff#
8fff#
8.ggg
16ff#
=24
8ff#
8aa
8ccc#
4ccc#
8ccc#
=25
8ccc#
8ddd
8gg
8bb
8cc#
8ee#
=26
8ff#
8.ccc#
16gg#
8aa
8.aa
16ee#
=27
4r
8r
8r
8r
[8cc#
=28
8cc#]
8cc#
8cc#
8ff#
8aa
8ccc#
=29
4ccc#
16eee
16ddd
8ddd
8ee#
8bb
=30
8bb
8b
16cc#
16dd
8dd
8.cc#
16b
=31
16b
8a
8cc#
16ff#[
24ff#]
24aa
24ccc#[
24ccc#]
24fff#
24ggg#
24aaa
24fff#
24ccc#
=32
4ccc#
24eee
24ccc#
24ddd
24ddd
24ee
24ee#
24ee#
24ddd
24ccc#
24ccc#
24aa#
24bb
=33
32bb
32e#
32f#
32g#
32a
32a#
32b
32b#
24cc#
24dd
24dd#
24ee
24cc#
24dd
32dd
32bb
32gg#
32ee#
32dd
32b#
32dd
32cc#
=34
8cc#
8.ff#
16cc#
4dd
8cc#
=35
24cc#
24ccc#
24gg#
32bb
32aa
32ee#
32ff#
32gg#
32ff#
48aa
48ff#
48cc#
16ee
16dd
16dd
8dd
16cc#
=36
8.cc#
16ff#[
16ff#]
16ff#[
8.ff#]
16ff#[
16ff#]
16ff#[
=37
8.ff#]
16bb[
16bb]
16bb[
8.bb]
16bb[
16bb]
16bb[
=38
16bb]
8bb
8bb
16bb[
16bb]
8eee
8eee
[16eee
=39
16eee]
16gg#
16bb
16aa
16gg#
16aa
8ccc
4bb[
=40
16bb]
16gg#
16bb-
16aa
16gg#
16aa
8bb
4aa
=41
*k[f#c#]
16aa
16ff#
16aa
16gg
16ff#
16gg
16gg
16ee
16gg
16ff#
16ee
16ff
=42
8ff
8ee
8dd
8gg
8ff#
[8bb
=43
8bb]
8aa
[8ddd
8ddd]
8ccc#
[8ggg
=44
8.ggg]
16g
16e
16b-
16g#
16a
16e
16b
16a
16g
=45
8f#
8r
[8DD
4DD]
16DD
16AAA
=46
4.AAA
4AAA
8AAA
=47
8FFF#
8r
[8ddd
4ddd]
16ddd
16aa
=48
4.aa
4aa
8aa
=49
8ff#
8r
[8DD
8DD]
8DD
24DD
24CC#
24DD
=50
4AAA
4AAA
4AAA
=51
8FFF#
8r
[8ddd
8ddd]
8ddd
24ddd
24ccc#
24ddd
=52
4aa
[4aa
8aa_
24aa_
24aa]
24gg
=53
8ff#
4ff#
4.gg
=54
8aa
4aa
4.bb
=55
4ccc#
8ddd
4eee
8fff#
=56
8ggg
8aa
8bb
4ff
8ee-
=57
4.aa
4bb
8ff#
=58
16aa
16ff#
16ggg
16bb
16fff#
16eee
4ddd
16ccc#
16ccc
=59
8ccc
8cc[
16cc]
16b
4b-
8r
=60
8a
8a[
16a]
16g#
8g
4r
=61
4r
8r
4f#
8b
=62
4b
8b
8b
4a
=63
4a
8f#
4A
8a
=64
4f#
8fff#
4eee
8aa
=65
4aa
8ff#
4a
8aa
=66
4ff#
8aa
4bb
8ccc#
=67
4.ddd
4.eee
=68
4eee
8fff#
8ggg
*8va
8aaa
8aaa
=69
8aaa
*X8va
8aa
8ff#
8ff#
8dd
8ee
=70
4.ff#
4gg
8bb
=71
4bb
8aa#
8aa#
8eee
16eee#
16fff#
=72
4.fff#
16dd#
16ff#
16gg#
16ddd
16fff#
16ggg#
=73
4.ee#
4gg#
8gg#
=74
4.ccc#
4aa
8ff#
=75
4fff#
8fff#
8fff#
8ddd#
8ccc#
=76
*k[b-e-a-]
4bb
16A-
16F
16D
16F
16B-
16d
16f
16b-
=77
4bb-
8gg
8gg
8ee-
8ff
=78
4gg
8ccc-
4aa-
8ff
=79
4ddd-
8bb-
4gg
8dd#
=80
4b
8g#
4ee
8cc#
=81
4a#
8fff#
4ddd#
8bb#
=82
*k[]
4ggg#
8eee
4ccc#
8a
=83
4f#
8d#
4bb
8gg#
=84
4ee
8ccc#
4aa
8ddd
=85
*k[f#c#g#]
4bb
8gg#
4ee#
8dd
=86
4b
8g#
4e#
8d[
=87
32d]
32B
32G#
32E#
32D
32E#
32G#
32B
8r
32D
32BB
32GG#
32BB
32dd
32ee#
32gg#
32bb
32ddd
32bb
32ddd
32ccc#
=88
32ddd
32cc#
32ddd
32ccc#
8aa
32bb
32a
32bb
32aa
32a
32aa
32bb
32aa
32gg#
32f#
32gg#
32ff#
32g#
32gg#
32aa
32gg#
=89
32a
32aa
32bb
32aa
32bb
32a#
32bb
32aa#
32b
32bb
32ccc#
32bb
32ccc#
32bb
32b
32bb
32b
32bb
32ccc#
32bb
32eee
32ddd
32dd
32ddd
=90
32dd
32ddd
32eee
32ddd
32eee
32ddd
32dd
32ddd
32cc#
32ccc#
32ddd
32ccc#
32ddd
32ccc#
32cc#
32ccc#
32bb
32eee#
32fff#
32eee#
32ggg#
32fff#
32aa
32fff#
=91
32aaa
32ggg#
32gg#
32ggg#
32r
32ggg#
32gg#
32ggg#
32r
32ggg#
32gg#
32ggg#
32r
32gg#
32eee
32ddd
32ccc#
32ddd
32gg#
32ddd
32r
32ddd
32gg#
32ddd
=92
32dd
32ccc#
32eee
32ddd
32ccc#
32ddd
32dd
32ddd
32dd
32ddd
32eee
32ddd
32ddd
32ccc#
32cc#
32ccc#
32bb
32ccc#
32cc#
32ccc#
32aa#
32bb
32b
32bb
=93
32b
32bb
32ccc#
32bb
32aa#
32bb
32b
32bb
32b
32bb
32ccc#
32bb
32r
32ccc#
32b
32bb
32r
32bb
32a
32aa
32r
32aa
32g#
32gg#
=94
32g#
32gg#
32ff##
32gg#
32aa
32gg#
32g#
32gg#
32g#
32gg#
32aa
32gg#
32aa
32gg#
32g#
32gg#
32a
32aa
32bb
32aa
32gg#
32ff#
32f#
32ff#
=95
32ee#
32ff#
32f#
32ff#
32gg#
32ff#
32f#
32ff#
32ee#
32ff#
32f#
32ff#
32r
32ff#
32f#
32ee#
32r
32aa
32g#
32gg#
32r
32ccc#
32b
32bb
=96
32ccc#
32b
32ccc#
32bb
32aa#
32bb
32b
32bb
32bb
32aa
32a
32aa
32bb
32a
32bb
32aa
32aa
32g#
32aa
32gg#
32gg#
32f#
32gg#
32ff#
=97
32ee#
32ff#
32f#
32ff#
32gg#
32ff#
32f#
32ff#
32e#
32ee#
32ff#
32ee#
32ff#
32e#
32ff#
32ee#
32g#
32gg#
32aa
32gg#
32bb
32b
32dd
32ddd
=98
32ccc#
32ddd
32dd
32ddd
32eee
32ddd
32dd
32ddd
32ddd
32cc#
32ddd
32ccc#
32r
32ddd
32cc#
32ccc#
32r
32ccc#
32b
32bb
32r
32bb
32a
32aa
=99
32bb
32a
32bb
32aa
32gg#
32aa
32a
32aa
32aa
32g#
32aa
32gg#
32r
32gg#
32g#
32gg#
32r
*8va
32ggg#
32gg#
32ggg#
32r
32ggg
32gg
32ggg
=100
32r
32ggg
32gg
32ggg
32r
32ggg
32bb
32bbb
32r
32bbb
32aa
32aaa
32r
32aaa
32gg
32ggg
32r
32ggg
32gg
32ggg
32r
32ggg
32gg
32fff#
=101
32r
32fff#
32ee
32eee
32r
32eee
32ee
32eee
32r
32eee
32ee
32fff#
32r
32fff#
32gg
32ggg
32r
32ggg
32gg
32ggg
32r
32ggg
32gg
32fff#
=102
32fff#
32ff#
32ff#
32fff#
32aaa
32aa
32aa
32aaa
32cccc#
32ccc#
32ccc#
32cccc#
32r
32cccc#
32ccc#
32cccc#
*X8va
32r
32ccc#
32cc#
32ccc#
32r
*8va
32cccc#
32ccc#
32cccc#
*X8va
=103
32r
32ccc#
32cc#
32ccc#
32r
*8va
32cccc#
32ccc#
32cccc#
32aaa
32aa
32aa
32aaa
32aaa
32aa
32aa
32aaa
*X8va
32fff#
32ff#
32ff#
32f#
32gg#
32g#
32aa
32a
=104
8bb
8b
8a
8a
8g#
8f#
=105
4.f#
8.e#
16g#
16b
16dd
=106
8dd
8dd
8cc#
8cc#
8b
8a
=107
4a
8g#
8g#
4g
=108
4bb
8aa
8aa
8gg
16gg
16ff#
=109
8ff#
8ee
16ee
16ff#
16ff#
16gg
8gg
16g
16f#
=110
8f#
8a
8cc#
4cc#
8cc#
=111
8cc#
8dd
8g
8b
8c#
8e#
=112
8f#
8.cc#
16g#
8a
8.aa
16ee#
=113
4r
8r
4r
[8ff#
=114
8ff#]
8ff#
8ff#
8ddd
8eee
8fff#
=115
8fff#
8aaa
8ggg
8.ggg
16eee
16ccc#
16ddd
=116
16fff#
16eee
24eee
24gg
24ff#
24gg
24aa
24aa#
24ccc#
24bb
24aa
24gg
24ff#
24gg
24gg#
24aa
24ee
=117
16gg
8ff#
8aa
[16ddd
16ddd]
8ddd
8eee
16fff#
=118
4fff#
16aaa
16ggg
[8ggg
24ggg]
24ddd
24eee#
24ggg
24fff#
24eee#
=119
[8eee
24eee]
24bb#
24ccc#
24eee
24ddd
24ccc#
32bb
32aa#
32ddd
32ccc#
32bb#
32ccc#
32ee
32gg
32ee#
32ff#
32cc#
32ee
=120
8dd
8.bb
16ff#
4gg
8ff#
=121
32ff#
32fff#
32ccc#
32ddd
32eee
32ddd
32aa#
32bb
32ccc#
32bb
48ddd
48bb
48ff#
16aa
[16gg
16gg]
8gg
16ff#
=122
8.ff#
[16ff#
16ff#]
16ff#
8.ff#
[16bb
16bb]
16bb
=123
16bb#
8bb#
16bb#[
16bb#]
16bb#
16ccc#
16ccc#[
16ccc#]
16ccc#[
16ccc#]
16ccc#[
=124
16ccc#]
16bb#
16ddd#
16ccc#
16bb#
16ccc#
8eee
[4ddd#
=125
16ddd#]
16bb#
16ddd#
16ccc#
16bb#
16ccc#
8ddd#
[4ccc#
=126
*k[f#c#g#d#a#e#]
16ccc#]
16aa#
16ccc#
16bb
16aa#
16bb
16bb
16gg#
16bb
16aa#
16gg#
16aa
=127
8aa
8gg#
8ff#
8bb
8aa
[8ddd#
=128
8ddd#]
8ccc#
[8fff#
8fff#]
8eee#
[8bbb
=129
8.bbb]
16b
16g#
16dd
16b#
16cc#
16g#
16dd#
16cc#
16b
=130
8a#
8r
[8FF#
4FF#]
16FF#
16CC#
=131
4.CC#
4CC#
8CC#
=132
8AAA#
8r
[8fff#
4fff#]
16fff#
16ccc#
=133
4.ccc#
4ccc#
8ccc#
=134
8aa#
8r
[8FF#
8FF#]
8FF#
24FF#
24EE#
24FF#
=135
4CC#
4CC#
4CC#
=136
8AAA#
8r
[8fff#
8fff#]
8fff#
24fff#
24eee#
24fff#
=137
4ccc#
4ccc#
[8ccc#
24ccc#_
24ccc#]
24bb
=138
8aa#
4aa#
4.bb
=139
8ccc#
4ccc#
4.ddd#
=140
4eee#
8fff#
4ggg#
8aaa#
=141
8bbb
8ccc#
8ddd#
4aa
8gg
=142
4.ccc#
4ddd#
8dd#
=143
16ccc#
16aa#
16bb
16ddd#
16aaa#
16ggg#[
16ggg#]
16fff#[
16fff#]
16ff#
16ee#
16ee#
=144
[4ee
16ee]
16dd#
4dd
8r
=145
[4cc#
16cc#]
16b#
8b
4r
=146
4r
8r
4b-
8ee-
=147
4ee-
8ee-
8dd#
4cc#
=148
4cc#
8a#
4c#
8cc#
=149
4a#
8aa#
4gg#
8cc#
=150
4cc#
8aa#
4cc#
8ccc#
=151
4aa#
[8ccc#
8ccc#]
8ddd#
8eee#
=152
4.fff#
4.ggg#
=153
4aaa#
8aa#
8.ccc#
16ddd
16eee
16fff#
=154
4fff#
8ddd
8ddd
8bb
8ccc#
=155
4ddd
8r
4r
8r
=156
4.bb
4.ddd
=157
*k[f#]
[4.ggg
8ggg]
8dd
16cc
16b
=158
8b
8r
[8GG
8GG]
8GG
24GG
24FF#
24GG
=159
4DD
4DD
4DD
=160
8BBB
8r
[8ggg
8ggg]
8ggg
24ggg
24fff#
24ggg
=161
4ddd
4ddd
4ddd
=162
4ddd
[8ddd
8ddd]
[8ddd
24ddd]
24ccc#
24ddd
=163
4ddd
4ddd
[8fff#
24fff#]
24eee#
24fff#
=164
4fff#
[8fff#
16fff#]
16r
[8fff#
16fff#]
16r
=165
*k[f#c#]
16fff#
[16fff#
16fff#]
[16fff#
16fff#]
[16fff#
16fff#]
[16fff#
16fff#]
[16fff#
16fff#]
16fff#
=166
*k[f#c#g#]
4cc#
8a
8a
8f#
8g#
=167
4a
8a#
4b
8dd
=168
4dd
8cc#
8cc#
8b
8a
=169
4a
8g#
8g#
4g
=170
4bb
8aa
8aa
8gg
8ff#
=171
8ff#
8ee
8ff#
8ff#
8.gg
16f#
=172
8f#
8a
8cc#
4cc#
8cc#
=173
8cc#
8dd
8g
8b
8c#
16e#
16f#
=174
4f#
8ff#
4ff#
8cc#
=175
8ee
8dd
8b[
8b]
8dd
8b
=176
24a#
24ff#
24cc#
24aa#
24ff#
24ccc#
24ff#
24ggg
24fff#
24eee#
24fff#
24eee[
24eee]
24ccc#
24aa#
24gg
24ff#
[24ee
=177
24ee]
24cc#
24dd
24bb
24ff#
24ddd[
24ddd]
24ccc#
24bb
4bb
8bb
=178
[4.aa#
4aa#]
[8aa#
=179
4aa#]
[8fff#
4fff#]
[8fff#
=180
8fff#]
[4aaa#
4aaa#]
8cc#
=181
4cc#
8a
8a
8f#
8g#
=182
4a
8a#
4b
8cc#
=183
8dd
4dd
4dd
16dd
16cc#
=184
2.cc#
=185
2.ccc#
=186
4.ccc#
4.cc#
=187
4cc#
8r
4r
8r
==
*-
